X:347
T:Sudmalinas
T:The Windmill
Z:Jack Campin, http://www.campin.me.uk/
F:Jack Campin's Nine-Note Tunebook
% last edit 05-03-2013
M:2/4
L:1/8
Q:1/4=126
K:D
dd/d/ dd|dc    BA |BB/B/ BB|BA    GF |GG/G/ GG|GF    ED |A2 A2|A2 z2 :|
DD/C/ DF|A>D   A>D|EE/D/ EF|G>F   G>E|DD/C/ DF|A>F   A>F|BA GE|D D2 z:|
BB/A/ Bd|BB/A/ Bd |AA/G/ Ac|AA/G/ Ac |BB/A/ Bd|BB/A/ Bd |AG FE|D2 z2 :|
DD/C/ DF|A>F   A>F|EE/D/ EF|G>F   G>E|DD/C/ DF|A>F   A>F|BA GE|D D2 z:|

